X:1
T:Bonny Eloise (Belle of the Mohawk Vale)
M:4/4
L:1/4
K:G
 B- c| d2 B d| g2 f e| d e G3/2 A/2| B2 B c| d2 c B| A2 d3/2 d/2| B4-|\
 B z| B- c| d g2 d| e2 f g| d g G3/2 A/2| B2 B c| d2 c3/2 B/2| A d2 F|\
 G4-| G z| d- d| e c2 e| g2 f3/2 e/2| d g G3/2 A/2| B3 c| d2 c3/2 B/2|\
 A2 d2| B4-| B z| B- c| d g2 z| e g2- e| d g G3/2 A/2| B2 B- c| d2 c B|\
 A d3| G4-| G z||
